X:1
T:Title
L:1/8
Q:1/4=100
M:6/8
K:F
V:1 treble nm="Church Organ, Staff"
V:1
 A A2 A c2 | A A2- A/ z/ G2 | A B2 B d2 | c B2- B/ z/ A2 | A =B2 B c2 | A G2 A G2 | G e2 e d2 | %7
w: By~Joseph~Barnby * * *|||||||
 c c2- c d2- | d c2- c c2 | c c2 A G2 | F F2 G A2 | B G2- G G2- | G F2- F F2- | F3 z3 |] %14
w: |||||||

